illustfolio3/dist/images/compare_speed.svg

<svg width="40" height="40" viewBox="0 0 40 40" fill="none" xmlns="http://www.w3.org/2000/svg">
<mask id="mask0_1636_442" style="mask-type:alpha" maskUnits="userSpaceOnUse" x="0" y="0" width="40" height="40">
<rect width="40" height="40" fill="#D9D9D9"/>
</mask>
<g mask="url(#mask0_1636_442)">
<path d="M20.0002 36.6668C17.6854 36.6668 15.5142 36.2339 13.4864 35.3681C11.4586 34.5025 9.69239 33.3174 8.18766 31.8127C6.68294 30.3079 5.4978 28.5417 4.63225 26.5139C3.76641 24.4861 3.3335 22.3149 3.3335 20.0002C3.3335 17.681 3.76641 15.5086 4.63225 13.4831C5.4978 11.4575 6.68294 9.69239 8.18766 8.18766C9.69239 6.68294 11.4586 5.4978 13.4864 4.63225C15.5142 3.76641 17.6854 3.3335 20.0002 3.3335C22.3193 3.3335 24.4917 3.76641 26.5172 4.63225C28.5428 5.4978 30.3079 6.68294 31.8127 8.18766C33.3174 9.69239 34.5025 11.4575 35.3681 13.4831C36.2339 15.5086 36.6668 17.681 36.6668 20.0002C36.6668 22.3149 36.2339 24.4861 35.3681 26.5139C34.5025 28.5417 33.3174 30.3079 31.8127 31.8127C30.3079 33.3174 28.5428 34.5025 26.5172 35.3681C24.4917 36.2339 22.3193 36.6668 20.0002 36.6668ZM20.006 27.3056C21.7057 27.3056 23.3611 27.5441 24.9722 28.021C26.5834 28.4979 28.102 29.2039 29.5281 30.1389C30.917 28.8056 31.991 27.267 32.7502 25.5231C33.5093 23.7789 33.8889 21.9379 33.8889 20.0002C33.8889 16.1229 32.5435 12.8388 29.8527 10.1477C27.1616 7.45683 23.8774 6.11141 20.0002 6.11141C16.1229 6.11141 12.8388 7.45683 10.1477 10.1477C7.45683 12.8388 6.11141 16.1229 6.11141 20.0002C6.11141 21.9374 6.48864 23.785 7.24308 25.5431C7.9978 27.3014 9.0835 28.8334 10.5002 30.1389C11.9077 29.2039 13.4188 28.4979 15.0335 28.021C16.6485 27.5441 18.306 27.3056 20.006 27.3056ZM20.0002 30.0835C18.7871 30.0835 17.5881 30.2456 16.4031 30.5697C15.2178 30.8936 14.0742 31.3704 12.9722 32.0002C14.0742 32.6113 15.2178 33.0789 16.4031 33.4031C17.5881 33.727 18.7871 33.8889 20.0002 33.8889C21.2132 33.8889 22.4122 33.727 23.5972 33.4031C24.7825 33.0789 25.9261 32.6113 27.0281 32.0002C25.9261 31.3704 24.7825 30.8936 23.5972 30.5697C22.4122 30.2456 21.2132 30.0835 20.0002 30.0835ZM11.3106 17.8335C11.7056 17.8335 12.035 17.6999 12.2989 17.4327C12.5628 17.1657 12.6947 16.8347 12.6947 16.4397C12.6947 16.0447 12.5611 15.7153 12.2939 15.4514C12.0267 15.1875 11.6957 15.0556 11.301 15.0556C10.906 15.0556 10.5766 15.1892 10.3127 15.4564C10.0488 15.7236 9.91683 16.0546 9.91683 16.4493C9.91683 16.8443 10.0504 17.1738 10.3177 17.4377C10.5846 17.7016 10.9156 17.8335 11.3106 17.8335ZM16.616 12.6668C17.011 12.6668 17.3404 12.5332 17.6043 12.266C17.8682 11.9991 18.0002 11.6681 18.0002 11.2731C18.0002 10.8781 17.8666 10.5486 17.5993 10.2847C17.3324 10.0209 17.0014 9.88891 16.6064 9.88891C16.2114 9.88891 15.882 10.0225 15.6181 10.2897C15.3542 10.557 15.2222 10.8879 15.2222 11.2827C15.2222 11.6777 15.3559 12.0071 15.6231 12.271C15.8903 12.5349 16.2213 12.6668 16.616 12.6668ZM28.7272 17.8335C29.1222 17.8335 29.4517 17.6999 29.7156 17.4327C29.9795 17.1657 30.1114 16.8347 30.1114 16.4397C30.1114 16.0447 29.9778 15.7153 29.7106 15.4514C29.4434 15.1875 29.1124 15.0556 28.7177 15.0556C28.3227 15.0556 27.9932 15.1892 27.7293 15.4564C27.4654 15.7236 27.3335 16.0546 27.3335 16.4493C27.3335 16.8443 27.4671 17.1738 27.7343 17.4377C28.0013 17.7016 28.3322 17.8335 28.7272 17.8335ZM19.9981 23.1389C20.8606 23.1389 21.5997 22.8316 22.2156 22.2168C22.8311 21.6021 23.1389 20.8632 23.1389 20.0002C23.1389 19.601 23.0649 19.2096 22.9168 18.826C22.7688 18.4421 22.5559 18.1113 22.2781 17.8335L24.8889 11.6114C25.0464 11.2595 25.0627 10.9099 24.9377 10.5627C24.8127 10.2154 24.571 9.96308 24.2127 9.80558C23.8766 9.64836 23.5242 9.64544 23.1556 9.79683C22.7872 9.94822 22.5317 10.2104 22.3889 10.5835L19.7222 16.8614C18.9075 16.9447 18.227 17.285 17.6806 17.8822C17.1345 18.4795 16.8614 19.1854 16.8614 20.0002C16.8614 20.8632 17.1685 21.6021 17.7827 22.2168C18.3968 22.8316 19.1353 23.1389 19.9981 23.1389Z" fill="#4B4B4B"/>
</g>
</svg>

<svg width="40" height="40" fill="none" xmlns="http://www.w3.org/2000/svg"><mask id="a" style="mask-type:alpha" maskUnits="userSpaceOnUse" x="0" y="0" width="40" height="40"><path fill="#D9D9D9" d="M0 0h40v40H0z"/></mask><g mask="url(#a)"><path d="M20 36.667c-2.315 0-4.486-.433-6.514-1.299-2.027-.866-3.794-2.05-5.298-3.555-1.505-1.505-2.69-3.271-3.556-5.3-.866-2.027-1.298-4.198-1.298-6.513 0-2.319.432-4.491 1.298-6.517.866-2.026 2.05-3.79 3.556-5.295 1.504-1.505 3.27-2.69 5.298-3.556 2.028-.866 4.2-1.298 6.514-1.298 2.32 0 4.492.432 6.517 1.298 2.026.866 3.79 2.05 5.296 3.556 1.504 1.504 2.69 3.27 3.555 5.295.866 2.026 1.299 4.198 1.299 6.517 0 2.315-.433 4.486-1.299 6.514-.866 2.028-2.05 3.794-3.555 5.299a16.673 16.673 0 0 1-5.296 3.555c-2.025.866-4.198 1.299-6.517 1.299Zm.006-9.361c1.7 0 3.355.238 4.966.715a17.144 17.144 0 0 1 4.556 2.118 14.198 14.198 0 0 0 3.222-4.616A13.692 13.692 0 0 0 33.89 20c0-3.877-1.346-7.161-4.036-9.852C27.162 7.457 23.877 6.11 20 6.11s-7.161 1.346-9.852 4.037C7.457 12.838 6.11 16.123 6.11 20c0 1.937.378 3.785 1.132 5.543A13.34 13.34 0 0 0 10.5 30.14a16.694 16.694 0 0 1 4.534-2.118 17.467 17.467 0 0 1 4.972-.715ZM20 30.083c-1.213 0-2.412.163-3.597.487-1.185.324-2.329.8-3.43 1.43a15.47 15.47 0 0 0 3.43 1.403 13.584 13.584 0 0 0 7.194 0A15.47 15.47 0 0 0 27.028 32a14.708 14.708 0 0 0-3.43-1.43A13.576 13.576 0 0 0 20 30.084Zm-8.69-12.25c.396 0 .725-.133.989-.4s.396-.598.396-.993-.134-.725-.401-.989a1.357 1.357 0 0 0-.993-.395c-.395 0-.724.133-.988.4a1.357 1.357 0 0 0-.396.993 1.36 1.36 0 0 0 1.394 1.385Zm5.306-5.166c.395 0 .724-.134.988-.401s.396-.598.396-.993-.133-.724-.4-.988a1.357 1.357 0 0 0-.994-.396c-.395 0-.724.134-.988.4a1.358 1.358 0 0 0-.396.994c0 .395.134.724.401.988s.598.396.993.396Zm12.111 5.167c.395 0 .725-.134.989-.401s.395-.598.395-.993-.133-.725-.4-.989a1.357 1.357 0 0 0-.993-.395c-.395 0-.725.133-.989.4a1.357 1.357 0 0 0-.395.993c0 .395.133.725.4.989s.598.396.993.396Zm-8.729 5.305c.863 0 1.602-.307 2.218-.922A3.02 3.02 0 0 0 23.139 20c0-.399-.074-.79-.222-1.174a2.818 2.818 0 0 0-.639-.992l2.61-6.223c.158-.352.175-.701.05-1.048a1.278 1.278 0 0 0-.725-.757c-.336-.158-.689-.16-1.057-.01a1.33 1.33 0 0 0-.767.788l-2.667 6.277a3.105 3.105 0 0 0-2.041 1.021A3.035 3.035 0 0 0 16.86 20c0 .863.308 1.602.922 2.217a3.019 3.019 0 0 0 2.215.922Z" fill="#4B4B4B"/></g></svg>
